images/logo.svg

<svg width="255.56600000000003" height="49.091" xmlns="http://www.w3.org/2000/svg">

 <g>
  <title>background</title>
  <rect fill="none" id="canvas_background" height="402" width="582" y="-1" x="-1"/>
 </g>
 <g>
  <title>Layer 1</title>
  <g id="svg_1">
   <path id="svg_3" d="m22.5,0l-22.5,12.273l0,24.813l22.5,12.005l22.5,-12.005l0,-24.68c0,0 -22.5,-12.406 -22.5,-12.406zm-2.045,43.364l-13.631,-7.272l8.593,-5.729c2.209,-1.471 -0.135,-4.825 -2.543,-3.222l-8.783,5.854l0,-16.161l16.364,8.924l0,17.606zm-14.047,-29.925l14.046,-7.662l0,9.053c0,2.706 4.091,2.708 4.091,0l0,-9.031l14.134,7.795l-16.169,8.628l-16.102,-8.783zm18.137,12.334l16.364,-8.732l0,15.955l-8.72,-5.813c-2.416,-1.606 -4.752,1.749 -2.547,3.22l8.534,5.688l-13.631,7.274c0,0 0,-17.592 0,-17.592z" fill="#FFFFFF"/>
   <text font-weight="bold" stroke="null" transform="matrix(1.031853583925977,0,0,1.0712152605692367,3.45530942328449,-1.8093608604345492) " xml:space="preserve" text-anchor="start" font-family="Georgia, Times, 'Times New Roman', serif" font-size="36" id="svg_5" y="36.689243" x="50.516953" stroke-opacity="null" stroke-width="0" fill="#ffffff">Khang Thi</text>
  </g>
 </g>
</svg>

<?xml version="1.0" encoding="utf-8"?>
<!-- Generator: Adobe Illustrator 17.0.0, SVG Export Plug-In . SVG Version: 6.00 Build 0)  -->
<!DOCTYPE svg PUBLIC "-//W3C//DTD SVG 1.1//EN" "http://www.w3.org/Graphics/SVG/1.1/DTD/svg11.dtd">
<svg version="1.1" id="Layer_1" xmlns="http://www.w3.org/2000/svg" xmlns:xlink="http://www.w3.org/1999/xlink" x="0px" y="0px"
	 width="255.566px" height="49.091px" viewBox="0 0 255.566 49.091" enable-background="new 0 0 255.566 49.091"
	 xml:space="preserve">
<g>
	<path fill="#FFFFFF" d="M70.574,32.818l1.62,3.06c-1.26,1.035-2.97,1.665-4.635,1.665c-3.6,0-6.12-2.609-6.12-6.345v-13.68h-3.51
		v-3.78h3.51v-6.39h4.365v6.39h5.49v3.78h-5.49v13.365c0,1.619,1.08,2.789,2.385,2.789C69.179,33.672,70.079,33.313,70.574,32.818z
		 M79.619,18.193v-4.455h-4.455v23.264h4.455V23.773c0.405-4.05,3.825-6.705,8.64-6.705v-3.87
		C84.254,13.198,81.104,15.133,79.619,18.193z M110.308,22.918v14.084h-4.365v-3.194c-1.71,2.43-4.905,3.734-7.74,3.734
		c-4.95,0-8.595-2.88-8.595-7.425c0-4.635,4.185-7.74,9.314-7.74c2.295,0,4.77,0.495,7.02,1.26v-0.72c0-2.925-1.35-6.03-5.985-6.03
		c-2.295,0-4.545,0.9-6.57,1.935l-1.62-3.285c3.33-1.665,6.254-2.34,8.819-2.34C106.844,13.198,110.308,17.158,110.308,22.918z
		 M105.944,26.608c-1.89-0.585-4.05-0.899-6.345-0.899c-3.105,0-5.715,1.755-5.715,4.274s2.25,4.05,5.175,4.05
		c2.88,0,6.12-1.439,6.885-4.319C105.944,29.714,105.944,26.608,105.944,26.608z M126.778,13.198c-3.15,0-5.985,1.62-7.38,3.915
		v-3.375h-4.455v23.264h4.455V21.928c0.359-2.745,3.149-4.86,6.39-4.86c3.149,0,5.354,2.43,5.354,5.895v14.04h4.365V22.198
		C135.508,16.933,131.908,13.198,126.778,13.198z M149.413,23.323c-3.915-1.215-5.355-1.755-5.355-3.555
		c0-1.755,1.801-2.745,4.096-2.745c2.024,0,4.364,0.765,6.614,2.16l1.98-3.285c-2.521-1.665-5.58-2.7-8.595-2.7
		c-4.95,0-8.505,2.79-8.46,7.065c0,3.78,2.655,5.31,8.01,6.795c2.88,0.81,5.265,1.485,5.265,3.645c0,1.8-1.8,3.016-4.41,3.016
		c-2.744,0-5.399-1.035-7.874-2.835l-2.115,3.194c2.79,2.25,6.524,3.465,9.944,3.465c5.085,0,8.82-2.79,8.82-7.199
		C157.333,25.708,153.237,24.448,149.413,23.323z M171.732,33.672c-4.275,0-7.785-3.779-7.785-8.324c0-4.5,3.51-8.28,7.74-8.28
		c2.159,0,4.185,0.945,5.579,2.52l3.016-2.79c-2.205-2.205-5.22-3.6-8.55-3.6c-6.66,0-12.285,5.535-12.285,12.15
		s5.625,12.194,12.24,12.194c3.465,0,6.479-1.439,8.729-3.734l-3.015-2.745C175.962,32.683,173.892,33.672,171.732,33.672z
		 M204.717,26.923h-18.314c0.585,3.869,3.42,6.659,7.425,6.659c2.43,0,5.265-1.08,6.66-2.52l2.79,2.88
		c-2.07,2.205-6.12,3.6-9.405,3.6c-6.479,0-11.97-5.085-11.97-12.239c0-6.975,5.175-12.105,11.61-12.105
		C200.622,13.198,204.717,18.598,204.717,26.923z M200.397,23.368c-0.495-3.6-2.7-6.21-6.705-6.21c-3.6,0-6.524,2.43-7.245,6.21
		H200.397z M219.927,13.198c-3.149,0-5.984,1.62-7.38,3.915v-3.375h-4.454v23.264h4.454V21.928c0.36-2.745,3.15-4.86,6.39-4.86
		c3.15,0,5.355,2.43,5.355,5.895v14.04h4.364V22.198C228.656,16.933,225.056,13.198,219.927,13.198z M255.566,5.549v31.454h-4.409
		v-4.05c-1.8,2.88-4.68,4.59-8.28,4.59c-6.119,0-10.709-5.04-10.709-12.194c0-7.11,4.59-12.15,10.709-12.15
		c3.601,0,6.48,1.71,8.28,4.545V5.549H255.566z M251.157,25.348c0-4.86-3.016-8.28-7.2-8.28c-4.274,0-7.289,3.42-7.289,8.28
		c0,4.859,3.015,8.324,7.289,8.324C248.141,33.672,251.157,30.207,251.157,25.348z"/>
	<path fill="#FFFFFF" d="M22.5,0L0,12.273v24.813l22.5,12.005L45,37.086v-24.68C45,12.406,22.5,0,22.5,0z M20.455,43.364
		L6.824,36.092l8.593-5.729c2.209-1.471-0.135-4.825-2.543-3.222l-8.783,5.854V16.834l16.364,8.924V43.364z M6.408,13.439
		l14.046-7.662v9.053c0,2.706,4.091,2.708,4.091,0V5.799l14.134,7.795L22.51,22.222L6.408,13.439z M24.545,25.773l16.364-8.732
		v15.955l-8.72-5.813c-2.416-1.606-4.752,1.749-2.547,3.22l8.534,5.688l-13.631,7.274C24.545,43.365,24.545,25.773,24.545,25.773z"
		/>
</g>
</svg>
